X: 3610
T: Bill Harte's
R: jig
M: 6/8
K: Dmixolydian
DCD AGA|BAG A2d|DCD AGA|BAG EDC|
DCD AGA|BAG ABc|ded cBA|BAG EDC:|
DdB c2A|BAG A2G|DdB c2A|BAG EDC|
DdB c2A|BAG ABc|ded cBA|BAG EDC:|

